!!!COM: Beethoven, Ludwig van
!!!CDT: 1770///-1827///
!!!ODT: 1798///-1800///
!!!OTL: String Quartet No. 1 in F Major, Op. 18, No. 1
!!!OPS: Op. 18
!!!ONM: No. 1
!!!OMV: Mvmt. 3
!!!OMD: Scherzo (Allegro molto)
!!!PDT: 1801///
!!!PPP: Vienna
!!!PPR: C. Haslinger qm Tobias
!!!ODE: Dem F&uuml;rsten von Lobkowitz gewidmet
!!!MPD: 1798///-1800///
**kern	**dynam	**kern	**dynam	**kern	**dynam	**kern	**dynam
*staff4	*staff4	*staff3	*staff3	*staff2	*staff2	*staff1	*staff1
*Icello	*Icello	*Iviola	*Iviola	*Ivioln	*Ivioln	*Ivioln	*Ivioln
*>[A,A,B,B,C,C,D,A,B]	*>[A,A,B,B,C,C,D,A,B]	*>[A,A,B,B,C,C,D,A,B]	*>[A,A,B,B,C,C,D,A,B]	*>[A,A,B,B,C,C,D,A,B]	*>[A,A,B,B,C,C,D,A,B]	*>[A,A,B,B,C,C,D,A,B]	*>[A,A,B,B,C,C,D,A,B]
*>norep[A,B,C,D,A,B]	*>norep[A,B,C,D,A,B]	*>norep[A,B,C,D,A,B]	*>norep[A,B,C,D,A,B]	*>norep[A,B,C,D,A,B]	*>norep[A,B,C,D,A,B]	*>norep[A,B,C,D,A,B]	*>norep[A,B,C,D,A,B]
*>A	*>A	*>A	*>A	*>A	*>A	*>A	*>A
*clefF4	*clefF4	*clefC3	*clefC3	*clefG2	*clefG2	*clefG2	*clefG2
*k[b-]	*k[b-]	*k[b-]	*k[b-]	*k[b-]	*k[b-]	*k[b-]	*k[b-]
*M3/4	*M3/4	*M3/4	*M3/4	*M3/4	*M3/4	*M3/4	*M3/4
*MM320	*MM320	*MM320	*MM320	*MM320	*MM320	*MM320	*MM320
4FF'/	p	2.A/	p	[2.c/	p	[2.f/	p
4AA'/	.	.	.	.	.	.	.
4BB-'/	.	.	.	.	.	.	.
=2	=2	=2	=2	=2	=2	=2	=2
(2C/	.	2G/	.	2c/]	.	4f/]	.
.	.	.	.	.	.	4e'/	.
8BB-/L	.	4c'\	.	4d'/	.	4f#'/	.
8AA/J)	.	.	.	.	.	.	.
=3	=3	=3	=3	=3	=3	=3	=3
4GG'/	.	2.B-/	.	[2.d/	.	[2.g/	.
4BB-'/	.	.	.	.	.	.	.
4C'/	.	.	.	.	.	.	.
=4	=4	=4	=4	=4	=4	=4	=4
(2D/	.	2A/	.	2d/]	.	4g/]	.
.	.	.	.	.	.	4f#'/	.
8C/L	.	4d'\	.	4e'/	.	4g#'/	.
8BBn/J)	.	.	.	.	.	.	.
=5	=5	=5	=5	=5	=5	=5	=5
(4AA/	.	(2c\	.	(2e/	.	(2a/	.
4C/	.	.	.	.	.	.	.
4E\	.	[4e\)	.	4g#/	.	4bn\	.
=6	=6	=6	=6	=6	=6	=6	=6
4A'\)	.	4e\]	.	4a'/)	.	4cc\	.
4r	.	4r	.	4r	.	4r	.
4r	.	4r	.	4r	.	4r	.
=7	=7	=7	=7	=7	=7	=7	=7
(2.G\	.	(2.f\	.	2.bn\	.	2.dd\	.
=8	=8	=8	=8	=8	=8	=8	=8
.	.	.	.	(aq/LL	.	ccq/LL	.
.	.	.	.	bq/JJ)	.	ddq/JJ	.
4c\)	.	4e\)	.	4cc\	.	4ee\	.
4r	.	4r	.	4r	.	4r	.
4r	.	4r	.	4r	.	4r	.
=9	=9	=9	=9	=9	=9	=9	=9
(2.GG/	f	2.F/	f	2.Bn/	f	2.d/	f
=10	=10	=10	=10	=10	=10	=10	=10
.	.	(Eq/LL	.	(Aq/LL	.	cq/LL	.
.	.	Fq/JJ)	.	Bq/JJ)	.	dq/JJ	.
4C/)	.	4E/	.	4c/	.	4c/	.
4r	.	4r	.	4r	.	4r	.
4r	.	4r	.	4r	.	4r	.
=11:|!	=11:|!	=11:|!	=11:|!	=11:|!	=11:|!	=11:|!	=11:|!
*>B	*>B	*>B	*>B	*>B	*>B	*>B	*>B
(2A-\	p	(2e-\	p	(2c/	p	2cc\	p
4c\)	.	4e-'\)	.	4a-/)	.	&(4ee-\&)	.
=12	=12	=12	=12	=12	=12	=12	=12
(2B-\	.	(2e-\	.	(2g/	.	4ee-\	.
.	.	.	.	.	.	&(4dd-\&)	.
4E-\)	.	4B-/)	.	4g'/)	.	4dd-'\	.
=13	=13	=13	=13	=13	=13	=13	=13
2A-\	.	(4B-/	.	(4g/	.	4dd-\	.
.	.	4A-/)	.	4a-/)	.	&(4cc\&)	.
4AA-/	.	4A-'/	.	4a-'/	.	4cc'\	.
=14	=14	=14	=14	=14	=14	=14	=14
(2F\	.	(2c\	.	(2c/	.	2a-/	.
4A-\)	.	4c'\)	.	4f'/)	.	&(4cc\&)	.
=15	=15	=15	=15	=15	=15	=15	=15
(2G\	.	(2c\	.	(2e/	.	4cc\	.
.	.	.	.	.	.	&(4b-\&)	.
4C/)	.	4c'\)	.	4e'/)	.	4b-'\	.
=16	=16	=16	=16	=16	=16	=16	=16
2F\	.	2c\	.	(4e/	.	4b-/	.
.	.	.	.	4f/)	.	&(4a-/&)	.
4FF/	.	4c'\	.	4f'/	.	4a-'/	.
=17	=17	=17	=17	=17	=17	=17	=17
2.r	.	4d-'\	.	[2.dd-\	.	[2.ff\	.
.	.	4f'\	.	.	.	.	.
.	.	4g-'\	.	.	.	.	.
=18	=18	=18	=18	=18	=18	=18	=18
(2A-\	.	4a-'\	.	4dd-\]	.	4ff\]	.
.	.	4r	.	4cc'\	.	4ee-'\	.
8G-\L	.	4r	.	4ddn'\	.	4ff'\	.
8F\J)	.	.	.	.	.	.	.
=19	=19	=19	=19	=19	=19	=19	=19
4E-\	.	4e-'\	.	[2.ee-\	.	[2.gg-\	.
4r	.	4g-'\	.	.	.	.	.
4r	.	4a-'\	.	.	.	.	.
=20	=20	=20	=20	=20	=20	=20	=20
(2B-\	.	4b-'\	.	4ee-\]	.	4gg-\]	.
.	.	4r	.	4dd'\	.	4ff'\	.
8A-\L	.	4r	.	4een'\	.	4ggn'\	.
8G\J)	.	.	.	.	.	.	.
=21	=21	=21	=21	=21	=21	=21	=21
4F'\	.	4f'\	.	[2.ff\	.	[2.aa-\	.
4A-'\	.	4a-'\	.	.	.	.	.
4B-'\	.	4b-'\	.	.	.	.	.
=22	=22	=22	=22	=22	=22	=22	=22
(2c\	.	(2cc\	.	4ff\]	.	4aa-\]	.
.	.	.	.	4ee'\	.	4gg'\	.
8B-\L	.	8b-\L	.	(4ff'\	.	4aa-'\	.
8A-\J)	.	8a-\J)	.	.	.	.	.
=23	=23	=23	=23	=23	=23	=23	=23
(4G\	.	(4g\	.	[2.gg\	.	[2.bb-\	.
4F\	.	4f\	.	.	.	.	.
4E\	.	4e\	.	.	.	.	.
=24	=24	=24	=24	=24	=24	=24	=24
4F\	.	4f\	.	4gg\]	.	4bb-\]	.
4D-\	.	4d-\	.	4ff\)	.	&(4aa-\&)	.
4BBn/)	.	4Bn/)	.	4ff'\	.	4aa-'\	.
=25	=25	=25	=25	=25	=25	=25	=25
4C'/	.	4c'\	.	4ee\	.	4gg\	.
4c'\	.	4cc'\	.	4r	.	4r	.
.	.	.	.	.	.	bbnq/	.
4r	.	4r	.	4r	.	4ccc'\	.
=26	=26	=26	=26	=26	=26	=26	=26
4C'/	.	4c'\	.	4ff\	.	4aa-\	.
4c'\	.	4cc'\	.	4r	.	4r	.
.	.	.	.	.	.	bbnq/	.
4r	.	4r	.	4r	.	4ccc'\	.
=27	=27	=27	=27	=27	=27	=27	=27
4C'/	.	4c'\	.	4ee\	.	4gg\	.
4c'\	.	4cc'\	.	4r	.	4r	.
.	.	.	.	.	.	bbnq/	.
4r	.	4r	.	4r	.	4ccc'\	.
=28	=28	=28	=28	=28	=28	=28	=28
4C'/	.	4c'\	.	4f/	.	4aa-\	.
4c'\	.	4cc'\	.	4r	.	4r	.
.	.	.	.	.	.	bbnq/	.
4r	.	4r	.	4r	.	4ccc'\	.
=29	=29	=29	=29	=29	=29	=29	=29
4C'/	.	4e'\	.	4c'/	pp	4gg\	.
4r	.	4r	.	4e'/	.	4r	.
4r	.	4r	.	4f'/	.	4r	.
=30	=30	=30	=30	=30	=30	=30	=30
4G'\	pp	4E'/	pp	4g'/	.	4c'/	.
4E'\	.	4c'\	.	4r	.	4e'/	pp
4D'\	.	4d'\	.	4r	.	4f'/	.
=31	=31	=31	=31	=31	=31	=31	=31
4C'/	.	4e'\	.	4cc'\	.	4g'/	.
4r	.	4r	.	4ee'\	.	4r	.
4r	.	4r	.	4ff'\	.	4r	.
=32	=32	=32	=32	=32	=32	=32	=32
4GG'/	.	4B-'/	.	4gg'\	.	4cc'\	.
4EE'/	.	4G'/	.	4r	.	4ee'\	.
4DD'/	.	4F'/	.	4r	.	4ff'\	.
=33	=33	=33	=33	=33	=33	=33	=33
4CC'/	.	4E'/	.	4e'/	.	4gg'\	.
4r	.	4r	.	4g'/	.	4r	.
4r	.	4r	.	4a'/	.	4r	.
=34	=34	=34	=34	=34	=34	=34	=34
4G'\	.	4b-'\	.	4b-'\	.	4e'/	.
4E'\	.	4g'\	.	4r	.	4g'/	.
4D'\	.	4f'\	.	4r	.	4a'/	.
=35	=35	=35	=35	=35	=35	=35	=35
4C'/	.	4e'\	.	4ee'\	.	4b-'\	.
4r	.	4r	.	4gg'\	.	4r	.
4r	.	4r	.	4aa'\	.	4r	.
=36	=36	=36	=36	=36	=36	=36	=36
4C'/	.	4r	.	4bb-'\	.	4r	.
4BB-'/	.	4c\	.	4G/	.	4e/	.
4GG'/	.	4c\	.	4G/	.	4e/	.
=37	=37	=37	=37	=37	=37	=37	=37
4FF'/	.	2c\	.	(2A/	.	[2.f/	.
4AA'/	.	.	.	.	.	.	.
4BBn'/	.	[4d\	.	4A-/	.	.	.
=38	=38	=38	=38	=38	=38	=38	=38
(2C/	.	4d\]	.	2G/)	.	4f/]	.
.	.	4c'\	.	.	.	4e'/	.
8BB-/L	.	4d'\	.	[4c/	.	4f#'/	.
8AA/J)	.	.	.	.	.	.	.
=39	=39	=39	=39	=39	=39	=39	=39
4GG/	.	2d\	.	(4c/]	.	[2.g/	.
4BBn'/	.	.	.	4Bn/	.	.	.
4C#'/	.	[4e\	.	4B-/)	.	.	.
=40	=40	=40	=40	=40	=40	=40	=40
(2D\	.	4e\]	.	2A/	.	4g/]	.
.	.	4d'\	.	.	.	4f#'/	.
8C/L	.	4e'\	.	[4d/	.	4g#'/	.
8BBn/J)	.	.	.	.	.	.	.
=41	=41	=41	=41	=41	=41	=41	=41
(4AA/	.	2e\	.	(4d/]	.	2a/	.
4C/	p	.	.	4c/	p	.	.
4E\	.	[4e\	p	4g#/	.	4bn\	p
=42	=42	=42	=42	=42	=42	=42	=42
4A'\)	.	4e'\]	.	4a'/	.	4cc'\	.
4r	.	4r	.	4r	.	4r	.
4r	.	4r	.	4r	.	4r	.
=43	=43	=43	=43	=43	=43	=43	=43
(4D\	.	(2f\	.	2a/	.	2dd\	.
4F\	pp	.	.	.	.	.	.
4A\	.	4a\)	pp	&(4cc#\&)	pp	&(4ee\&)	pp
=44	=44	=44	=44	=44	=44	=44	=44
4d'\)	.	4a'\	.	4dd'\	.	4ff'\	.
4r	.	4r	.	4r	.	4r	.
4r	.	4r	.	4r	.	4r	.
=45	=45	=45	=45	=45	=45	=45	=45
(4F\	ppp	(2a\	ppp	2cc\	ppp	2ff\	ppp
4A\	.	.	.	.	.	.	.
4c\	.	4cc\)	.	4ee\	.	4gg\	.
=46	=46	=46	=46	=46	=46	=46	=46
4f'\)	.	4cc'\	.	&(4ff'\&)	.	&(4aa'\&)	.
4r	.	4r	.	4r	.	4r	.
4r	.	4r	.	4r	.	4r	.
=47	=47	=47	=47	=47	=47	=47	=47
(2.c\	.	(2.b-\	.	2.ee\	.	2.gg\	.
=48	=48	=48	=48	=48	=48	=48	=48
.	.	.	.	ddq/LL	.	ffq/LL	.
.	.	.	.	&(eeq/JJ&)	.	&(ggq/JJ&)	.
4f\)	.	4a\)	.	4ff\	.	4aa\	.
4r	.	4r	.	4r	.	4r	.
4r	.	4r	.	4r	.	4r	.
=49	=49	=49	=49	=49	=49	=49	=49
(2.C/	.	2.B-/	.	2.e/	.	2.g/	.
=50	=50	=50	=50	=50	=50	=50	=50
.	.	(Aq/LL	.	dq/LL	.	fq/LL	.
.	.	B-q/JJ)	.	&(eq/JJ&)	.	&(gq/JJ&)	.
4F\)	.	4A/	.	4f/	.	4f/	.
4r	.	4r	.	4r	.	4r	.
4r	.	4r	.	4r	.	4r	.
=51	=51	=51	=51	=51	=51	=51	=51
2.GG/	.	2.G/	.	4r	.	4r	.
.	.	.	.	2B-/	.	2e/	.
=52	=52	=52	=52	=52	=52	=52	=52
(FFq/LL	.	(Fq/LL	.	.	.	.	.
GGq/JJ)	.	Gq/JJ)	.	.	.	.	.
4FF/	.	4F/	.	&(4A/&)	.	&(4f/&)	.
4r	.	4r	.	4r	.	4cc'\	.
4r	.	4r	.	4r	.	4cc'\	.
=53	=53	=53	=53	=53	=53	=53	=53
2.GG/	.	2.G/	.	4r	.	4r	.
.	.	.	.	2B-/	.	2e/	.
=54	=54	=54	=54	=54	=54	=54	=54
(FFq/LL	.	(Fq/LL	.	.	.	.	.
GGq/JJ)	.	Gq/JJ)	.	.	.	.	.
4FF/	.	4F/	.	4A/	.	4f/	.
4r	.	4r	.	4r	.	4ff'\	.
4r	.	4r	.	4r	.	4ff'\	.
=55	=55	=55	=55	=55	=55	=55	=55
2.GG/	.	2.G/	.	4r	.	4r	.
.	.	.	.	2B-/	.	2e/	.
=56	=56	=56	=56	=56	=56	=56	=56
(FFq/LL	.	(Fq/LL	.	.	.	.	.
GGq/JJ)	.	Gq/JJ)	.	.	.	.	.
4FF/	.	4F/	.	4A/	.	4f/	.
4r	.	4r	.	4cc'\	.	4ccc'\	.
4r	.	4r	.	4cc'\	.	4ccc'\	.
=57	=57	=57	=57	=57	=57	=57	=57
4AA/	.	4C/	.	2.e-'/	.	2.ee-\	.
4A\	.	4f#\	.	.	.	.	.
4A\	.	4f#\	.	.	.	.	.
=58	=58	=58	=58	=58	=58	=58	=58
.	.	.	.	dq/LL	.	ddq/LL	.
.	.	.	.	e-q/JJ	.	ee-q/JJ	.
4B-\	.	4g\	.	4d/	.	4dd\	.
4BB-/	.	4d\	.	4r	.	4r	.
4BB-/	.	4d\	.	4r	.	4r	.
=59	=59	=59	=59	=59	=59	=59	=59
4r	.	4r	.	4e/	.	4ee\	.
4C/	.	4B-/	.	4r	.	4r	.
4C/	.	4B-/	.	4r	.	4r	.
=60	=60	=60	=60	=60	=60	=60	=60
4F\	.	4A/	.	4f/	.	4ff\	.
4r	.	4r	.	4cc'\	.	4ccc\	.
4r	.	4r	.	4cc'\	.	4ccc\	.
=61	=61	=61	=61	=61	=61	=61	=61
4AA/	.	4C/	.	2.e-'/	.	2.ee-\	.
4A\	.	4f#\	.	.	.	.	.
4A\	.	4f#\	.	.	.	.	.
=62	=62	=62	=62	=62	=62	=62	=62
.	.	.	.	dq/LL	.	ddq/LL	.
.	.	.	.	e-q/JJ	.	ee-q/JJ	.
4B-\	.	4g\	.	4d/	.	4dd\	.
4BB-/	.	4d\	.	4r	.	4r	.
4BB-/	.	4d\	.	4r	.	4r	.
=63	=63	=63	=63	=63	=63	=63	=63
4r	.	4r	.	4e/	.	4ee\	.
4C/	.	4B-/	.	4r	.	4r	.
4C/	.	4B-/	.	4r	.	4r	.
=64	=64	=64	=64	=64	=64	=64	=64
4F'\	.	4A'/	.	2a/	.	[2.ff\	.
4A'\	.	(4c'\	.	.	.	.	.
4Bn'\	.	4d'\)	.	4a-/	.	.	.
=65	=65	=65	=65	=65	=65	=65	=65
(2c\	.	(2e\	.	2g/	.	4ff\]	.
.	.	.	.	.	.	4ee'\	.
8B-\L)	.	8d\L	.	4cc\	.	4ff#'\	.
8A\J	.	8c\J)	.	.	.	.	.
=66	=66	=66	=66	=66	=66	=66	=66
4G'\	.	(4d'\	.	4b-'\	.	[2.gg\	.
4B-\	.	4b-'\	.	4dd'\	.	.	.
4c#'\	.	4a'\)	.	[4ee\	.	.	.
=67	=67	=67	=67	=67	=67	=67	=67
(2d\	.	2a\	.	4ee\]	.	4gg\]	.
.	.	.	.	4dd'\	.	4ff#'\	.
8c\L)	.	4e'\	.	4dd'\	.	4gg#'\	.
8Bn\J	.	.	.	.	.	.	.
=68	=68	=68	=68	=68	=68	=68	=68
(4A\	.	(4e\	.	4cc\	.	[2.aa\	.
4g\	.	4a\	.	4cc#\	.	.	.
4f\	.	4bn\	.	4dd\	.	.	.
=69	=69	=69	=69	=69	=69	=69	=69
4e\	.	4cc#\	.	4ee\	.	2.aa\_	.
4d\	.	4dd\	.	4ff\	.	.	.
4c#\	.	4ee\	.	4gg\	.	.	.
=70	=70	=70	=70	=70	=70	=70	=70
(4d'\)	.	(4dd\)	.	4ff'\	.	4aa'\]	.
4c\	f	4e-\	f	4ff#\	f	4aa\	f
4B-\	.	4d\	.	4gg\	.	4bb-\	.
=71	=71	=71	=71	=71	=71	=71	=71
4A\	.	4c\	.	4aa\	.	4ccc\	.
4G\	.	4B-/	.	4bb-\	.	4ddd\	.
4F#\	.	4A/	.	4ccc\	.	4eee-\	.
=72	=72	=72	=72	=72	=72	=72	=72
4G\)	.	4B-/)	.	4bb-\	.	4ddd\	.
4B-\	.	(4b-\	.	4gg\	.	4bb-\	.
4Bn\	.	4bn\	.	4ffn\	.	4aa\	.
=73	=73	=73	=73	=73	=73	=73	=73
&(4c'\&)	.	4cc\)	.	4ee'\	.	4gg'\	.
4EE/	.	(4E/	.	4bb-\	.	4ddd\	.
4FF/	.	4F/	.	4aa\	.	4ccc\	.
=74	=74	=74	=74	=74	=74	=74	=74
4GG/	.	4G/	.	4gg\	.	4bb-\	.
4AA/	.	4A/	.	4ff\	.	4aa\	.
(4BB-/	.	4B-/	.	4ee\	.	4gg\	.
=75	=75	=75	=75	=75	=75	=75	=75
4C/	.	4c\	.	4dd\	.	4ff\	.
4D\	.	4d\	.	4cc\	.	4ee\	.
4E\	.	4e\)	.	4b-\	.	4dd\	.
=76	=76	=76	=76	=76	=76	=76	=76
4F\	.	4f\	.	4a/	.	4cc\	.
4G\	.	4c\	.	4e/	.	4b-\	.
4A\	.	(4c\	.	4f/	.	4a/	.
=77	=77	=77	=77	=77	=77	=77	=77
4BB-/	.	4B-/)	.	4d/	.	4g/	.
4GG/)	.	4B-'/	.	4g/	.	4b-\	.
4C'/	.	4G'/	.	4B-'/	.	4e'/	.
=78	=78	=78	=78	=78	=78	=78	=78
4FF'/	.	4A'/	.	4A'/	.	4f'/	.
4r	.	4r	.	4A'/	.	4a'/	.
[4F\	.	[4A-/	.	4Bn/	.	4bn'\	.
=79	=79	=79	=79	=79	=79	=79	=79
4F\]	.	4A-/]	.	2.c/	.	2.cc\	.
4E'\	.	4G'/	.	.	.	.	.
4C'/	.	4E'/	.	.	.	.	.
=80	=80	=80	=80	=80	=80	=80	=80
4F\	.	4An/	.	4f'/	.	4ff'\	.
4r	.	4r	.	4a'/	.	4aa'\	.
[4FF/	.	[4A-/	.	4bn\	.	4bbn'\	.
=81	=81	=81	=81	=81	=81	=81	=81
4FF'/]	.	4A-/]	.	[2.cc\	.	[2.ccc\	.
4EE'/	.	4G'/	.	.	.	.	.
4CC'/	.	4E'/	.	.	.	.	.
=82	=82	=82	=82	=82	=82	=82	=82
4FF'/	.	4An'/	.	4cc\]	.	4ccc\]	.
4EE'/	.	4G'/	.	[2cc\	.	[2ccc\	.
4CC'/	.	4E'/	.	.	.	.	.
=83	=83	=83	=83	=83	=83	=83	=83
4FF'/	.	4A'/	.	4cc\]	.	4ccc\]	.
4E'\	.	4g'\	.	[2cc\	.	[2ccc\	.
4C'/	.	4e'\	.	.	.	.	.
=84	=84	=84	=84	=84	=84	=84	=84
4F'\	.	4a'\	.	4cc\]	.	4ccc'\]	.
4FF'/	.	4c'\	.	4a'/	.	4aa'\	.
4FF'/	.	4c'\	.	4a'/	.	4aa'\	.
=85	=85	=85	=85	=85	=85	=85	=85
4FF'/	.	4A'/	.	4f'/	.	4ff'\	.
4r	.	4r	.	4r	.	4r	.
4r	.	4r	.	4r	.	4r	.
=86:|!	=86:|!	=86:|!	=86:|!	=86:|!	=86:|!	=86:|!	=86:|!
*>C	*>C	*>C	*>C	*>C	*>C	*>C	*>C
.	.	.	.	bnq/	.	bnq/	.
4C'/	ff	4c'\	ff	4cc'\	ff	4cc'\	ff
4r	.	4r	.	4r	.	4r	.
4CC'/	.	4C'/	.	4c'/	.	4c'/	.
=87	=87	=87	=87	=87	=87	=87	=87
.	.	.	.	bnq/	.	bnq/	.
4C'/	.	4c'\	.	4cc'\	.	4cc'\	.
4r	.	4r	.	4r	.	4r	.
4CC'/	.	4C'/	.	4c'/	.	4c'/	.
=88	=88	=88	=88	=88	=88	=88	=88
.	.	.	.	bnq/	.	bnq/	.
4C'/	.	4c'\	.	4cc'\	.	4cc'\	.
4CC'/	.	4C'/	.	4c'/	.	4c'/	.
4C'/	.	4c'\	.	4cc\	.	4cc'\	.
=89	=89	=89	=89	=89	=89	=89	=89
4CC'/	.	4C'/	.	4c'/	.	4c'/	.
4C'/	.	4c'\	.	4cc'\	.	4cc'\	.
4CC'/	.	4C'/	.	4c'/	.	4c'/	.
=90	=90	=90	=90	=90	=90	=90	=90
2.DD-/	p	2.D-/	p	2.A-/ 2.f/	p	8d-/L	p
.	.	.	.	.	.	8e-/	.
.	.	.	.	.	.	8d-/	.
.	.	.	.	.	.	8c/	.
.	.	.	.	.	.	8d-/	.
.	.	.	.	.	.	8e-/J	.
=91	=91	=91	=91	=91	=91	=91	=91
[2.DD-/	.	[2.d-\	.	[2.A-/ [2.f/	.	8f/L	.
.	.	.	.	.	.	8g-/	.
.	.	.	.	.	.	8a-/	.
.	.	.	.	.	.	8b-/	.
.	.	.	.	.	.	8cc/	.
.	.	.	.	.	.	8dd-/J	.
=92	=92	=92	=92	=92	=92	=92	=92
2.DD-/_	.	2.d-\_	.	2.A-/_ 2.f/_	.	8ee-\L	.
.	.	.	.	.	.	8ff\	.
.	.	.	.	.	.	8gg-\	.
.	.	.	.	.	.	8ff\	.
.	.	.	.	.	.	8ee-\	.
.	.	.	.	.	.	8dd-\J	.
=93	=93	=93	=93	=93	=93	=93	=93
2DD-/_	.	(2d-\]	.	2A-/] 2f/]	.	8cc/L	.
.	.	.	.	.	.	8b-/	.
.	.	.	.	.	.	8a-/	.
.	.	.	.	.	.	8g-/	.
4DD-'/]	.	4c'\)	.	4A-'/ 4g-'/	.	8f/	.
.	.	.	.	.	.	8e-/J	.
=94	=94	=94	=94	=94	=94	=94	=94
2.DD-/	.	2.d-\	.	2.A-/ 2.f/	.	8d-/L	.
.	.	.	.	.	.	8e-/	.
.	.	.	.	.	.	8d-/	.
.	.	.	.	.	.	8c/	.
.	.	.	.	.	.	8d-/	.
.	.	.	.	.	.	8f/J	.
=95	=95	=95	=95	=95	=95	=95	=95
[2.DD-/	.	[2.d-\	.	[2.A-/ [2.f/	.	8f/L	.
.	.	.	.	.	.	8g-/	.
.	.	.	.	.	.	8a-/	.
.	.	.	.	.	.	8b-/	.
.	.	.	.	.	.	8cc/	.
.	.	.	.	.	.	8dd-/J	.
=96	=96	=96	=96	=96	=96	=96	=96
2.DD-/_	.	2.d-\_	.	2.A-/_ 2.f/_	.	8ee-\L	.
.	.	.	.	.	.	8ff\	.
.	.	.	.	.	.	8gg-\	.
.	.	.	.	.	.	8ff\	.
.	.	.	.	.	.	8ee-\	.
.	.	.	.	.	.	8dd-\J	.
=97	=97	=97	=97	=97	=97	=97	=97
2DD-/]	.	(2d-\]	.	2A-/_ 2f/]	.	8cc/L	.
.	.	.	.	.	.	8b-/	.
.	.	.	.	.	.	8a-/	.
.	.	.	.	.	.	8g-/	.
4DD-/	.	4c'\)	.	4A-'/] 4g-'/	.	8f/	.
.	.	.	.	.	.	8e-/J	.
=98	=98	=98	=98	=98	=98	=98	=98
4DD-'/	.	(4d-'\	.	4A-'/ 4f'/	.	8d-/L	.
.	.	.	.	.	.	8f/	.
4D-'\	.	4d-'\	.	4d-'/	.	8e/	.
.	.	.	.	.	.	8f/	.
4D-'\	.	4d-'\)	.	4d-'/	.	8e/	.
.	.	.	.	.	.	8f/J	.
=99	=99	=99	=99	=99	=99	=99	=99
(4D-\	.	(4d-\	.	4d-/	.	8d-/L	.
.	.	.	.	.	.	8f/	.
4C/	.	4c\	.	4c/	.	8c/	.
.	.	.	.	.	.	8f/	.
4BBn/)	.	4Bn/)	.	4Bn/	.	8Bn/	.
.	.	.	.	.	.	8f/J	.
=100	=100	=100	=100	=100	=100	=100	=100
4C/	.	4c\	.	4c/	.	8c/L	.
.	.	.	.	.	.	8f/	.
4r	.	4r	.	4r	.	8a-/	.
.	.	.	.	.	.	8cc/	.
4CC/	.	4C/	.	4c/	.	8c/	.
.	.	.	.	.	.	8cc/J	.
=101	=101	=101	=101	=101	=101	=101	=101
4FF/	.	4F/	.	4f/	.	4f/	.
4r	.	4r	.	4r	.	4r	.
4r	.	4r	.	4r	.	4r	.
=102:|!	=102:|!	=102:|!	=102:|!	=102:|!	=102:|!	=102:|!	=102:|!
*>D	*>D	*>D	*>D	*>D	*>D	*>D	*>D
2.r	.	4f'\	pp	[2.an/	pp	[2.ee-\	pp
.	.	4r	.	.	.	.	.
.	.	4F'/	.	.	.	.	.
=103	=103	=103	=103	=103	=103	=103	=103
2.r	.	4f'\	.	2.a/_	.	2.ee-\_	.
.	.	4r	.	.	.	.	.
.	.	4F'/	.	.	.	.	.
=104	=104	=104	=104	=104	=104	=104	=104
2.r	.	4f'\	.	2.a/_	.	2.ee-\_	.
.	.	4F'/	.	.	.	.	.
.	.	4f'\	.	.	.	.	.
=105	=105	=105	=105	=105	=105	=105	=105
2.r	.	4F'/	.	2.a/]	.	2.ee-\]	.
.	.	4f'\	.	.	.	.	.
.	.	4F'/	.	.	.	.	.
=106	=106	=106	=106	=106	=106	=106	=106
4B-'\	.	[2.f\	.	[2.a-/	.	[2.ddn\	.
4r	pp	.	.	.	.	.	.
4BB-'/	.	.	.	.	.	.	.
=107	=107	=107	=107	=107	=107	=107	=107
4B-'\	.	2.f\_	.	2.a-/_	.	2.dd\_	.
4r	.	.	.	.	.	.	.
4BB-'/	.	.	.	.	.	.	.
=108	=108	=108	=108	=108	=108	=108	=108
4B-'\	.	2.f\_	.	2.a-/_	.	2.dd\_	.
4BB-'/	.	.	.	.	.	.	.
4B-'\	.	.	.	.	.	.	.
=109	=109	=109	=109	=109	=109	=109	=109
4BB-'/	.	2.f\]	.	2.a-/]	.	2.dd\]	.
4B-'\	.	.	.	.	.	.	.
4BB-'/	.	.	.	.	.	.	.
=110	=110	=110	=110	=110	=110	=110	=110
2.r	.	4g'\	.	[2.b-\	.	2.dd-\	.
.	.	4G'/	.	.	.	.	.
.	.	4g'\	.	.	.	.	.
=111	=111	=111	=111	=111	=111	=111	=111
4En'\	.	2.r	.	2.b-\]	.	[2.g/ [2.cc/	.
4EEn'/	.	.	.	.	.	.	.
4E\	.	.	.	.	.	.	.
=112	=112	=112	=112	=112	=112	=112	=112
2.r	.	4f'\	.	2.a-/	.	2.g/] 2.cc/]	.
.	.	4F'/	.	.	.	.	.
.	.	4f'\	.	.	.	.	.
=113	=113	=113	=113	=113	=113	=113	=113
4F'\	.	2.r	.	2.a/	.	2.f/ 2.cc/	.
4FF'/	.	.	.	.	.	.	.
4F'\	.	.	.	.	.	.	.
=114	=114	=114	=114	=114	=114	=114	=114
4C'/	.	4c'\	.	4g/	.	4e/ 4cc/	.
4r	.	4r	.	4r	.	4r	.
4CC'/	.	4C'/	.	4r	.	4r	.
=115	=115	=115	=115	=115	=115	=115	=115
4C'/	pp	4c'\	pp	2.r	.	2.r	.
4r	.	4r	.	.	.	.	.
4CC'/	.	4C'/	.	.	.	.	.
=116	=116	=116	=116	=116	=116	=116	=116
4C'/	.	4c'\	.	2.r	.	2.r	.
4CC'/	.	4C'/	.	.	.	.	.
4C'/	.	4c'\	.	.	.	.	.
=117	=117	=117	=117	=117	=117	=117	=117
4CC'/	.	4C'/	.	2.r	.	2.r	.
4C'/	.	4c'\	.	.	.	.	.
4CC'/	.	4C'/	.	.	.	.	.
=118	=118	=118	=118	=118	=118	=118	=118
.	.	.	.	bnq/	.	b-q/	.
4C'/	p	4c'\	p	4cc'\	p	4cc'\	p
4r	.	4r	.	4r	.	4r	.
4CC'/	.	4C'/	.	4c'/	.	4c'/	.
=119	=119	=119	=119	=119	=119	=119	=119
.	.	.	.	bnq/	.	b-q/	.
4C'/	.	4c'\	.	4cc'\	.	4cc'\	.
4r	.	4r	.	4r	.	4r	.
4CC'/	.	4C'/	.	4c'/	.	4c'/	.
=120	=120	=120	=120	=120	=120	=120	=120
.	.	.	.	bnq/	.	b-q/	.
4C'/	.	4c'\	.	4cc'\	.	4cc'\	.
4CC'/	.	4C'/	.	4c'/	.	4c'/	.
4C'/	.	4c'\	.	4cc'\	.	4cc'\	.
=121	=121	=121	=121	=121	=121	=121	=121
4CC#'/	.	4C#'/	.	4c#'/	.	4c#'/	.
4C#'/	.	4c#'\	.	4cc#'\	.	4cc#'\	.
4CC#'/	.	4C#'/	.	4c#'/	.	4c#'/	.
=122	=122	=122	=122	=122	=122	=122	=122
2.DD/	.	2.D/	.	2.d/	.	8d/L	.
.	.	.	.	.	.	8g/	.
.	.	.	.	.	.	8b-/	.
.	.	.	.	.	.	8g/	.
.	.	.	.	.	.	8dd/	.
.	.	.	.	.	.	8b-/J	.
=123	=123	=123	=123	=123	=123	=123	=123
[2.DD/	.	[2.D/ [2.G/	.	[2.B-/	.	8gg\L	.
.	.	.	.	.	.	8dd\	.
.	.	.	.	.	.	8bb-\	.
.	.	.	.	.	.	8aa\	.
.	.	.	.	.	.	8gg\	.
.	.	.	.	.	.	8ff\J	.
=124	=124	=124	=124	=124	=124	=124	=124
2.DD/_	.	2.D/_ 2.G/_	.	2.B-/_	.	8ee-\L	.
.	.	.	.	.	.	8dd\	.
.	.	.	.	.	.	8cc\	.
.	.	.	.	.	.	8b-\	.
.	.	.	.	.	.	8a\	.
.	.	.	.	.	.	8g\J	.
=125	=125	=125	=125	=125	=125	=125	=125
2DD/_	.	2D/_ 2G/]	.	2B-/]	.	8f#/L	.
.	.	.	.	.	.	8g/	.
.	.	.	.	.	.	8f#/	.
.	.	.	.	.	.	8g/	.
4DD'/]	.	4D'/] 4A'/	.	4c'/	.	8a/	.
.	.	.	.	.	.	8f#/J	.
=126	=126	=126	=126	=126	=126	=126	=126
2.DD/	.	2.D/ 2.G/	.	2.B-/	.	8d/L	.
.	.	.	.	.	.	8g/	.
.	.	.	.	.	.	8b-/	.
.	.	.	.	.	.	8g/	.
.	.	.	.	.	.	8dd/	.
.	.	.	.	.	.	8b-/J	.
=127	=127	=127	=127	=127	=127	=127	=127
[2.DD/	.	[2.D/ [2.G/	.	[2.B-/	.	8gg\L	.
.	.	.	.	.	.	8dd\	.
.	.	.	.	.	.	8bb-\	.
.	.	.	.	.	.	8aa\	.
.	.	.	.	.	.	8gg\	.
.	.	.	.	.	.	8ff\J	.
=128	=128	=128	=128	=128	=128	=128	=128
2.DD/_	.	2.D/_ 2.G/_	.	2.B-/_	.	8ee-\L	.
.	.	.	.	.	.	8dd\	.
.	.	.	.	.	.	8cc\	.
.	.	.	.	.	.	8b-\	.
.	.	.	.	.	.	8a\	.
.	.	.	.	.	.	8g\J	.
=129	=129	=129	=129	=129	=129	=129	=129
2DD/_	.	2D/] 2G/]	.	2B-/]	.	8f#/L	.
.	.	.	.	.	.	8g/	.
.	.	.	.	.	.	8f#/	.
.	.	.	.	.	.	8g/	.
4DD'/]	.	4D/ 4A/	.	4c'/	.	8a/	.
.	.	.	.	.	.	8f#/J	.
=130	=130	=130	=130	=130	=130	=130	=130
2.GG/	.	2.D/	.	2.Bn/	.	8G/	.
.	.	.	.	.	.	8bn\L	.
.	.	.	.	.	.	8dd\	.
.	.	.	.	.	.	8b\	.
.	.	.	.	.	.	8ff\	.
.	.	.	.	.	.	8dd\J	.
=131	=131	=131	=131	=131	=131	=131	=131
[2.GG/	.	[2.D/	.	[2.Bn/	.	8bbn\L	.
.	.	.	.	.	.	8ff\	.
.	.	.	.	.	.	8ddd\	.
.	.	.	.	.	.	8ccc\	.
.	.	.	.	.	.	8bb\	.
.	.	.	.	.	.	8aa\J	.
=132	=132	=132	=132	=132	=132	=132	=132
2.GG/_	.	2.D/_	.	[2.B-/	.	8gg\L	.
.	.	.	.	.	.	8ff\	.
.	.	.	.	.	.	8ee\	.
.	.	.	.	.	.	8dd\	.
.	.	.	.	.	.	8ff\	.
.	.	.	.	.	.	8dd\J	.
=133	=133	=133	=133	=133	=133	=133	=133
2GG/_	.	(2D/]	.	2B-/]	.	8cc\L	.
.	.	.	.	.	.	8bn\	.
.	.	.	.	.	.	8dd\	.
.	.	.	.	.	.	8b\	.
4GG'/]	.	4E'/)	.	4c'/	.	8cc\	.
.	.	.	.	.	.	8ee\J	.
=134	=134	=134	=134	=134	=134	=134	=134
2.GG/	.	2.D/	.	2.Bn/	.	8G/	.
.	.	.	.	.	.	8bn\L	.
.	.	.	.	.	.	8dd\	.
.	.	.	.	.	.	8b\	.
.	.	.	.	.	.	8ff\	.
.	.	.	.	.	.	8dd\J	.
=135	=135	=135	=135	=135	=135	=135	=135
[2.GG/	.	[2.D/	.	[2.Bn/	.	8bbn\L	.
.	.	.	.	.	.	8ff\	.
.	.	.	.	.	.	8ddd\	.
.	.	.	.	.	.	8ccc\	.
.	.	.	.	.	.	8bb\	.
.	.	.	.	.	.	8aa\J	.
=136	=136	=136	=136	=136	=136	=136	=136
2.GG/_	.	2.D/_	.	[2.B-/	.	8gg\L	.
.	.	.	.	.	.	8ff\	.
.	.	.	.	.	.	8ee\	.
.	.	.	.	.	.	8dd\	.
.	.	.	.	.	.	8ff\	.
.	.	.	.	.	.	8dd\J	.
=137	=137	=137	=137	=137	=137	=137	=137
(2GG/]	.	2D/]	.	2B-/]	.	8cc\L	.
.	.	.	.	.	.	8bn\	.
.	.	.	.	.	.	8dd\	.
.	.	.	.	.	.	8b\	.
4C'/)	.	4E'/	.	4c'/	.	8cc\	.
.	.	.	.	.	.	8ee\J	.
=138	=138	=138	=138	=138	=138	=138	=138
2.CC/	.	2.C/	.	2.G/ 2.e/	.	8c/	.
.	.	.	.	.	.	8cc\L	.
.	.	.	.	.	.	8ee\	.
.	.	.	.	.	.	8cc\	.
.	.	.	.	.	.	8gg\	.
.	.	.	.	.	.	8ee\J	.
=139	=139	=139	=139	=139	=139	=139	=139
[2.CC/	.	[2.C/	.	[2.G/ [2.e/	.	8bb-\L	.
.	.	.	.	.	.	8aa\	.
.	.	.	.	.	.	8gg\	.
.	.	.	.	.	.	8ff\	.
.	.	.	.	.	.	8ee\	.
.	.	.	.	.	.	8dd\J	.
=140	=140	=140	=140	=140	=140	=140	=140
2.CC/_	.	2.C/_	.	2.G/_ 2.e/_	.	8cc/L	.
.	.	.	.	.	.	8b-/	.
.	.	.	.	.	.	8a/	.
.	.	.	.	.	.	8g/	.
.	.	.	.	.	.	8b-/	.
.	.	.	.	.	.	8g/J	.
=141	=141	=141	=141	=141	=141	=141	=141
(2CC/]	.	(2C/]	.	2G/] 2e/]	.	8f/L	.
.	.	.	.	.	.	8e/	.
.	.	.	.	.	.	8g/	.
.	.	.	.	.	.	8e/	.
4C'/)	.	4c'\)	.	4A'/ 4f'/	.	8f/	.
.	.	.	.	.	.	8a/J	.
=142	=142	=142	=142	=142	=142	=142	=142
2.CC/	.	2.C/	.	2.G/ 2.e/	.	8c/L	.
.	.	.	.	.	.	8cc/	.
.	.	.	.	.	.	8ee/	.
.	.	.	.	.	.	8cc/	.
.	.	.	.	.	.	8gg/	.
.	.	.	.	.	.	8ee/J	.
=143	=143	=143	=143	=143	=143	=143	=143
[2.CC/	.	[2.C/	.	[2.G/ [2.e/	.	8bb-\L	.
.	.	.	.	.	.	8aa\	.
.	.	.	.	.	.	8gg\	.
.	.	.	.	.	.	8ff\	.
.	.	.	.	.	.	8ee\	.
.	.	.	.	.	.	8dd\J	.
=144	=144	=144	=144	=144	=144	=144	=144
4CC/]	.	4C/]	.	4G/] 4e/]	.	8cc\L	.
.	.	.	.	.	.	8bn\	.
4r	.	4r	.	4r	.	8dd\	.
.	.	.	.	.	.	8cc\	.
4r	.	4r	.	4r	.	8b\	.
.	.	.	.	.	.	8dd\J	.
=145	=145	=145	=145	=145	=145	=145	=145
2.r	.	2.r	.	2.r	.	8cc\L	.
.	.	.	.	.	.	8bn\	.
.	.	.	.	.	.	8dd\	.
.	.	.	.	.	.	8cc\	.
.	.	.	.	.	.	8b-\	.
.	.	.	.	.	.	8g\J	.
==	==	==	==	==	==	==	==
*-	*-	*-	*-	*-	*-	*-	*-
!!!ENC: Craig Stuart Sapp
!!!END: 2004/09/06/
